X: 35979
T: Saratoga, The
R: hornpipe
M: 4/4
K: Fmajor
AB|~c3A ~d3A|cAFA ~c3A|BAGB AGFD|Gccd c2AB|
~c3A ~d3A|cAFA c2f2|edef efge|f2a2 f2f2|
aAgA fAeA|fAeA dAfA|eA^ce agfe|fgfe defg|
aAgA fAeA|fAeA dAfA|efga bgeg|f2a2 f2f2||

